X:1
T:Have Ye Received the Holy Ghost?
T:Have Ye Received the Holy Ghost?
T:Lelia Naylor Morris
T:Lelia Naylor Morris, 1897
T:Public Domain Courtesy of the Cyber Hymnal™
T:Public Domain Courtesy of the Cyber Hymnal™
C:Lelia Naylor Morris
Z:Public Domain
Z:Courtesy of the Cyber Hymnal™
%%score ( 1 2 ) ( 3 4 )
L:1/8
Q:1/4=100
M:9/8
K:Ab
V:1 treble 
V:2 treble 
V:3 bass 
V:4 bass 
V:1
 [Ec][=D=B][Ec] [CA]3 [CE]3 | C[CE][CA] [EG]3 [DF]3 | [DF][FB][Ec] [Fd]3 [Fc]2 [FB] | %3
w: 1.~Ye are the tem- ples,|Je- sus hath spo- ken,|Tem- ples of God’s Ho- ly|
w: 2.~He who has par- doned|sure- ly will cleanse thee,|All of the dross of thy|
w: 3.~Show- ers of mer- cy,|full- ness of bless- ing,|Ev- er the Spir- it’s in-|
w: 4.~Wea- ry of wan- dering,|come in- to Ca- naan,|Feast on the full- ness and|
 [EA][DG][CA] [EB]6 | [Ec][=D=B][Ec] [CA]3 [CE]3 | [CE][CA][Ec] [_Ge]3 [Fd]3 | %6
w: Spir- it di- vine;|Have ye re- ceived Him,|bid- den Him en- ter,|
w: na- ture re- fine;|Cleansed from all sin, His|Spir- it will en- ter,|
w: dwell- ing at- tend;|’Tis the en- due- ment,|pow- er for ser- vice,|
w: fat of the land;|Feed on the man- na,|dwell in the sun- shine,|
 [FB][FB][F=B] [Ec]3 [EA]2 [CE] | [B,E][DG][DB] [CA]6 || %8
w: Make His a- bode in that|poor heart of thine?|
w: Fill you and thrill you with|pow- er di- vine.|
w: Fruits for your la- bor He|sure- ly will send.|
w: Led by His Spi- rit and|kept by His hand.|
[M:12/8]"^Refrain" [Ge]4 [GB][FA] [Bd]3- [Bd]2 z | [Ac]4 [CA][EB] [Ac]3- [Ac]2 [Ac] | %10
w: ||
w: Have ye re- ceived, *|since ye be- lieved, * The|
w: ||
w: ||
 [EB]3- [EB]2 [FA] [EG]3 [=DF]3 | E3- E3- !fermata![DE]3 |[M:9/8] [CE][=B,=D][CE] | %13
w: |||
w: bless- * èd Ho- ly|Ghost? * He|* who was|
w: |||
w: |||
 [CA]3 [Ec]3 [CA][DB][Ec] | [Fd]3 F3 [F=d][Fd][Ad] | [Ge]3- [Ge]2 [Gd] [Gc]2 [GB] | [EA]6 z3 |] %17
w: ||||
w: prom- ised, gift of the|Fa- ther, Have ye re-|ceived * the Ho- ly|Ghost?|
w: ||||
w: ||||
V:2
 x9 | C x8 | x9 | x9 | x9 | x9 | x9 | x9 ||[M:12/8] x12 | x12 | x12 | E2 C B,2 C x3 |[M:9/8] x3 | %13
 x9 | x3 F3 x3 | x9 | x9 |] %17
V:3
 [A,,A,][A,,A,][A,,A,] [A,,E,]3 [A,,E,]3 | [A,,E,][A,,A,][A,,A,] [D,A,]3 [D,A,]3 | %2
w: ~ ~ ~ ~ ~|~ ~ ~ ~ ~|
 [D,A,][D,F,][C,=A,] [B,,B,]3 [C,A,]2 [D,B,] | [E,C][E,B,][E,A,] [E,G,]6 | %4
w: ~ ~ ~ ~ ~ ~|~ ~ ~ ~|
 [A,,A,][A,,A,][A,,A,] [A,,E,]3 [A,,A,]3 | [A,,A,][A,,E,][A,,A,] [C,A,]3 [D,A,]3 | %6
w: ~ ~ ~ ~ ~|~ ~ ~ ~ ~|
 [D,A,][D,A,][=D,A,] [E,A,]3 [E,C]2 [E,A,] | [E,G,][E,B,][E,G,] [A,,A,]6 || %8
w: ~ ~ ~ ~ ~ ~|~ ~ ~ ~|
[M:12/8] [E,B,][E,B,][E,B,] [E,B,] z2 [E,E][E,E][E,E] [E,E]2 z | %9
w: Have ye re- ceived, have ye re- ceived|
 [A,E][A,E][A,E] [A,E] z2 [A,E][A,E][A,E] [A,E]2 [A,E] | [G,E]2 [G,E] [G,E]2 [A,C] B,3 [B,,A,]3 | %11
w: Since ye be- lieved, since ye be- lieved, ~|bless- ed, bless- ed Ho- ly,|
 G,2 G, G,2 A, !fermata![E,B,]3 |[M:9/8] A,,A,,A,, | [A,,E,]3 [A,,A,]3 A,A,A, | %14
w: bless- ed Ho- ly Ghost?|||
 [D,A,]3 [D,A,]3 [B,,B,][B,,B,][B,,B,] | [E,B,]2 [E,B,] [E,B,]2 [E,B,] [E,E]2 [E,D] | [A,,C]6 z3 |] %17
w: |||
V:4
 x9 | x9 | x9 | x9 | x9 | x9 | x9 | x9 ||[M:12/8] x12 | x12 | x6 B,3 x3 | E,3- E,3- x3 | %12
[M:9/8] x3 | x6 A,A,A, | x9 | x9 | x9 |] %17

